svg/color/algopad.svg

<?xml version="1.0" encoding="UTF-8" ?>
<!DOCTYPE svg PUBLIC "-//W3C//DTD SVG 1.1//EN" "http://www.w3.org/Graphics/SVG/1.1/DTD/svg11.dtd">
<svg width="250pt" height="250pt" viewBox="0 0 250 250" version="1.1" xmlns="http://www.w3.org/2000/svg">
<g id="#ffffffff">
<path fill="#ffffff" opacity="1.00" d=" M 0.00 0.00 L 250.00 0.00 L 250.00 250.00 L 0.00 250.00 L 0.00 0.00 M 117.69 7.23 C 86.16 25.60 54.54 43.79 22.90 61.98 C 23.72 62.89 24.67 63.68 25.76 64.23 C 32.39 67.89 38.85 71.85 45.48 75.51 C 46.62 76.40 47.93 75.60 48.99 75.05 C 71.91 61.77 94.86 48.53 117.81 35.30 C 117.76 25.95 117.96 16.58 117.69 7.23 M 129.25 7.28 C 129.18 16.62 129.23 25.95 129.22 35.28 C 152.13 48.51 175.06 61.70 197.94 74.97 C 199.02 75.49 200.36 76.45 201.53 75.55 C 209.24 71.16 216.97 66.79 224.55 62.18 C 192.71 44.02 161.06 25.51 129.25 7.28 M 119.79 49.88 C 98.15 62.56 76.26 74.81 54.71 87.63 C 54.78 113.93 54.82 140.24 54.70 166.54 C 77.58 180.04 100.65 193.27 123.73 206.45 C 146.49 193.00 169.54 180.05 192.32 166.64 C 192.25 140.29 192.24 113.94 192.33 87.59 C 170.03 74.42 147.50 61.66 125.10 48.66 C 123.30 47.24 121.40 49.10 119.79 49.88 M 16.83 72.13 C 16.80 108.75 16.78 145.37 16.84 181.99 C 25.15 177.69 33.08 172.72 41.23 168.13 C 41.20 140.75 41.26 113.37 41.20 85.99 C 33.03 81.45 25.10 76.49 16.83 72.13 M 205.84 86.01 C 205.80 113.38 205.84 140.75 205.82 168.12 C 213.97 172.70 221.90 177.70 230.20 181.98 C 230.24 145.36 230.24 108.73 230.21 72.11 C 221.97 76.53 213.99 81.43 205.84 86.01 M 25.19 190.28 C 24.44 190.85 23.05 191.08 23.17 192.28 C 54.66 210.54 86.25 228.64 117.71 246.95 C 117.94 237.60 117.77 228.24 117.80 218.88 C 95.70 206.12 73.59 193.39 51.51 180.58 C 49.82 179.76 48.26 178.18 46.28 178.25 C 39.16 182.10 32.27 186.37 25.19 190.28 M 198.77 178.75 C 175.60 192.14 152.42 205.52 129.24 218.89 C 129.25 228.25 129.10 237.61 129.32 246.97 C 161.03 228.55 192.80 210.22 224.59 191.94 C 217.16 187.54 209.64 183.30 202.19 178.94 C 201.16 178.19 199.83 177.89 198.77 178.75 Z" />
<path fill="#ffffff" opacity="1.00" d=" M 123.34 67.95 C 123.87 68.71 124.42 69.44 125.00 70.17 C 143.62 100.86 162.06 131.67 180.81 162.29 C 174.07 162.28 167.34 162.22 160.60 162.33 C 147.91 142.14 136.12 121.39 123.31 101.29 C 111.33 121.80 98.90 142.08 86.48 162.33 C 79.76 162.21 73.04 162.31 66.32 162.26 C 85.38 130.85 104.43 99.45 123.34 67.95 Z" />
<path fill="#ffffff" opacity="1.00" d=" M 96.29 162.25 C 105.26 147.23 114.52 132.37 123.37 117.27 C 132.79 132.08 141.62 147.27 150.76 162.26 C 144.07 162.31 137.37 162.22 130.68 162.31 C 127.99 158.66 126.32 154.32 123.24 150.97 C 121.11 154.84 118.84 158.64 116.39 162.32 C 109.69 162.21 102.99 162.32 96.29 162.25 Z" />
</g>
<g id="#231f20ff">
<path fill="#231f20" opacity="1.00" d=" M 117.69 7.23 C 117.96 16.58 117.76 25.95 117.81 35.30 C 94.86 48.53 71.91 61.77 48.99 75.05 C 47.93 75.60 46.62 76.40 45.48 75.51 C 38.85 71.85 32.39 67.89 25.76 64.23 C 24.67 63.68 23.72 62.89 22.90 61.98 C 54.54 43.79 86.16 25.60 117.69 7.23 Z" />
<path fill="#231f20" opacity="1.00" d=" M 129.25 7.28 C 161.06 25.51 192.71 44.02 224.55 62.18 C 216.97 66.79 209.24 71.16 201.53 75.55 C 200.36 76.45 199.02 75.49 197.94 74.97 C 175.06 61.70 152.13 48.51 129.22 35.28 C 129.23 25.95 129.18 16.62 129.25 7.28 Z" />
<path fill="#231f20" opacity="1.00" d=" M 119.79 49.88 C 121.40 49.10 123.30 47.24 125.10 48.66 C 147.50 61.66 170.03 74.42 192.33 87.59 C 192.24 113.94 192.25 140.29 192.32 166.64 C 169.54 180.05 146.49 193.00 123.73 206.45 C 100.65 193.27 77.58 180.04 54.70 166.54 C 54.82 140.24 54.78 113.93 54.71 87.63 C 76.26 74.81 98.15 62.56 119.79 49.88 M 123.34 67.95 C 104.43 99.45 85.38 130.85 66.32 162.26 C 73.04 162.31 79.76 162.21 86.48 162.33 C 98.90 142.08 111.33 121.80 123.31 101.29 C 136.12 121.39 147.91 142.14 160.60 162.33 C 167.34 162.22 174.07 162.28 180.81 162.29 C 162.06 131.67 143.62 100.86 125.00 70.17 C 124.42 69.44 123.87 68.71 123.34 67.95 M 96.29 162.25 C 102.99 162.32 109.69 162.21 116.39 162.32 C 118.84 158.64 121.11 154.84 123.24 150.97 C 126.32 154.32 127.99 158.66 130.68 162.31 C 137.37 162.22 144.07 162.31 150.76 162.26 C 141.62 147.27 132.79 132.08 123.37 117.27 C 114.52 132.37 105.26 147.23 96.29 162.25 Z" />
<path fill="#231f20" opacity="1.00" d=" M 16.83 72.13 C 25.10 76.49 33.03 81.45 41.20 85.99 C 41.26 113.37 41.20 140.75 41.23 168.13 C 33.08 172.72 25.15 177.69 16.84 181.99 C 16.78 145.37 16.80 108.75 16.83 72.13 Z" />
<path fill="#231f20" opacity="1.00" d=" M 205.84 86.01 C 213.99 81.43 221.97 76.53 230.21 72.11 C 230.24 108.73 230.24 145.36 230.20 181.98 C 221.90 177.70 213.97 172.70 205.82 168.12 C 205.84 140.75 205.80 113.38 205.84 86.01 Z" />
<path fill="#231f20" opacity="1.00" d=" M 25.19 190.28 C 32.27 186.37 39.16 182.10 46.28 178.25 C 48.26 178.18 49.82 179.76 51.51 180.58 C 73.59 193.39 95.70 206.12 117.80 218.88 C 117.77 228.24 117.94 237.60 117.71 246.95 C 86.25 228.64 54.66 210.54 23.17 192.28 C 23.05 191.08 24.44 190.85 25.19 190.28 Z" />
<path fill="#231f20" opacity="1.00" d=" M 198.77 178.75 C 199.83 177.89 201.16 178.19 202.19 178.94 C 209.64 183.30 217.16 187.54 224.59 191.94 C 192.80 210.22 161.03 228.55 129.32 246.97 C 129.10 237.61 129.25 228.25 129.24 218.89 C 152.42 205.52 175.60 192.14 198.77 178.75 Z" />
</g>
</svg>

<?xml version="1.0" encoding="utf-8"?>
<!-- Generator: Adobe Illustrator 26.0.3, SVG Export Plug-In . SVG Version: 6.00 Build 0)  -->
<svg version="1.1" id="Layer_1" xmlns="http://www.w3.org/2000/svg" xmlns:xlink="http://www.w3.org/1999/xlink" x="0px" y="0px"
	 viewBox="0 0 250 250" style="enable-background:new 0 0 250 250;" xml:space="preserve">
<style type="text/css">
	.st0{fill:#FFFFFF;}
	.st1{fill:#231F20;}
</style>
<g id="_x23_ffffffff">
	<path class="st0" d="M123.3,67.9c0.5,0.8,1.1,1.5,1.7,2.2c18.6,30.7,37.1,61.5,55.8,92.1c-6.7,0-13.5-0.1-20.2,0
		c-12.7-20.2-24.5-40.9-37.3-61c-12,20.5-24.4,40.8-36.8,61c-6.7-0.1-13.4,0-20.2-0.1C85.4,130.9,104.4,99.4,123.3,67.9z"/>
	<path class="st0" d="M96.3,162.2c9-15,18.2-29.9,27.1-45c9.4,14.8,18.2,30,27.4,45c-6.7,0.1-13.4,0-20.1,0.1
		c-2.7-3.6-4.4-8-7.4-11.3c-2.1,3.9-4.4,7.7-6.8,11.4C109.7,162.2,103,162.3,96.3,162.2z"/>
</g>
<g id="_x23_231f20ff">
	<path class="st1" d="M117.7,7.2c0.3,9.4,0.1,18.7,0.1,28.1C94.9,48.5,71.9,61.8,49,75.1c-1.1,0.5-2.4,1.3-3.5,0.5
		c-6.6-3.7-13.1-7.6-19.7-11.3c-1.1-0.6-2-1.3-2.9-2.3C54.5,43.8,86.2,25.6,117.7,7.2z"/>
	<path class="st1" d="M129.2,7.3c31.8,18.2,63.5,36.7,95.3,54.9c-7.6,4.6-15.3,9-23,13.4c-1.2,0.9-2.5-0.1-3.6-0.6
		c-22.9-13.3-45.8-26.5-68.7-39.7C129.2,26,129.2,16.6,129.2,7.3z"/>
	<path class="st1" d="M119.8,49.9c1.6-0.8,3.5-2.6,5.3-1.2c22.4,13,44.9,25.8,67.2,38.9c-0.1,26.4-0.1,52.7,0,79.1
		c-22.8,13.4-45.8,26.4-68.6,39.8c-23.1-13.2-46.2-26.4-69-39.9c0.1-26.3,0.1-52.6,0-78.9C76.3,74.8,98.2,62.6,119.8,49.9
		 M123.3,67.9c-18.9,31.5-38,62.9-57,94.3c6.7,0.1,13.4,0,20.2,0.1c12.4-20.2,24.8-40.5,36.8-61c12.8,20.1,24.6,40.8,37.3,61
		c6.7-0.1,13.5-0.1,20.2,0c-18.8-30.6-37.2-61.4-55.8-92.1C124.4,69.4,123.9,68.7,123.3,67.9 M96.3,162.2c6.7,0.1,13.4,0,20.1,0.1
		c2.4-3.7,4.7-7.5,6.8-11.4c3.1,3.4,4.8,7.7,7.4,11.3c6.7-0.1,13.4,0,20.1-0.1c-9.1-15-18-30.2-27.4-45
		C114.5,132.4,105.3,147.2,96.3,162.2z"/>
	<path class="st1" d="M16.8,72.1C25.1,76.5,33,81.4,41.2,86c0.1,27.4,0,54.8,0,82.1c-8.1,4.6-16.1,9.6-24.4,13.9
		C16.8,145.4,16.8,108.8,16.8,72.1z"/>
	<path class="st1" d="M205.8,86c8.2-4.6,16.1-9.5,24.4-13.9c0,36.6,0,73.2,0,109.9c-8.3-4.3-16.2-9.3-24.4-13.9
		C205.8,140.8,205.8,113.4,205.8,86z"/>
	<path class="st1" d="M25.2,190.3c7.1-3.9,14-8.2,21.1-12c2-0.1,3.5,1.5,5.2,2.3c22.1,12.8,44.2,25.5,66.3,38.3
		c0,9.4,0.1,18.7-0.1,28.1c-31.5-18.3-63-36.4-94.5-54.7C23,191.1,24.4,190.9,25.2,190.3z"/>
	<path class="st1" d="M198.8,178.8c1.1-0.9,2.4-0.6,3.4,0.2c7.4,4.4,15,8.6,22.4,13c-31.8,18.3-63.6,36.6-95.3,55
		c-0.2-9.4-0.1-18.7-0.1-28.1C152.4,205.5,175.6,192.1,198.8,178.8z"/>
</g>
</svg>
